d1 $ s "bd ~ bd ~" # gain 1.67

d2 $ jux rev $ n "<e f g a> c a c [f*3] a e [<a c e> d a c]"
# s "superpiano"


d3 $ s "bass"

d4 $ jux rev
$ n "<f e d a f d e [f g]> ~ ~ ~" # s "superhoover" # room 0.8 # size 0.8


d4 $ jux rev $ n "hi"
